actions/24/view-refresh.svg

<?xml version="1.0" encoding="UTF-8" standalone="no"?>
<svg
   xmlns:dc="http://purl.org/dc/elements/1.1/"
   xmlns:cc="http://creativecommons.org/ns#"
   xmlns:rdf="http://www.w3.org/1999/02/22-rdf-syntax-ns#"
   xmlns:svg="http://www.w3.org/2000/svg"
   xmlns="http://www.w3.org/2000/svg"
   xmlns:xlink="http://www.w3.org/1999/xlink"
   version="1.1"
   width="24"
   height="24"
   id="svg4077">
  <defs
     id="defs4079">
    <radialGradient
       cx="16.202444"
       cy="-19.005346"
       r="19.99999"
       fx="16.202444"
       fy="-19.005346"
       id="radialGradient3813-6"
       xlink:href="#linearGradient2867-449-88-871-390-598-476-591-434-148-57-177-641-289-620-227-114-444-680-744-4-1-5-6-9"
       gradientUnits="userSpaceOnUse"
       gradientTransform="matrix(0,1.7142863,1.7418575,0,44.771221,-28.233914)" />
    <linearGradient
       id="linearGradient2867-449-88-871-390-598-476-591-434-148-57-177-641-289-620-227-114-444-680-744-4-1-5-6-9">
      <stop
         id="stop5430-5-0-9-4-2"
         style="stop-color:#737373;stop-opacity:1"
         offset="0" />
      <stop
         id="stop5432-2-0-0-4-4"
         style="stop-color:#636363;stop-opacity:1"
         offset="0.26238" />
      <stop
         id="stop5434-9-6-8-5-0"
         style="stop-color:#4b4b4b;stop-opacity:1"
         offset="0.704952" />
      <stop
         id="stop5436-2-7-0-0-5"
         style="stop-color:#3f3f3f;stop-opacity:1"
         offset="1" />
    </linearGradient>
  </defs>
  <metadata
     id="metadata4082">
    <rdf:RDF>
      <cc:Work
         rdf:about="">
        <dc:format>image/svg+xml</dc:format>
        <dc:type
           rdf:resource="http://purl.org/dc/dcmitype/StillImage" />
        <dc:title />
      </cc:Work>
    </rdf:RDF>
  </metadata>
  <path
     d="m 12.46875,5.59375 0,0.5 a 1.4715757,1.4715757 0 0 1 -1.25,1.46875 c -0.144958,0.020836 -0.265185,0.093401 -0.40625,0.125 a 1.4715757,1.4715757 0 0 1 1.65625,1.46875 l 0,0.78125 3.625,-2.15625 -3.625,-2.1875 z M 10.40625,7.8125 C 9.3092274,8.1489871 8.3742654,8.7776523 7.6875,9.65625 8.3713481,8.7930948 9.3293638,8.1417665 10.40625,7.8125 z M 7.6875,9.65625 C 6.9611926,10.585435 6.46875,11.717042 6.46875,13 c 0,3.070774 2.4604759,5.53125 5.53125,5.53125 2.546847,0 4.567699,-1.733675 5.21875,-4.0625 l -0.0625,0 c -0.658247,2.282977 -2.671733,4 -5.15625,4 -3.004358,0 -5.46875,-2.464392 -5.46875,-5.46875 0,-1.267414 0.4237151,-2.419142 1.15625,-3.34375 z"
     id="path4019-6"
     style="opacity:0.02999998;color:#000000;fill:none;stroke:#000000;stroke-width:1;stroke-linecap:butt;stroke-linejoin:miter;stroke-miterlimit:4;stroke-opacity:1;stroke-dasharray:none;stroke-dashoffset:0;marker:none;visibility:visible;display:inline;overflow:visible;enable-background:accumulate" />
  <path
     d="M 12.53125,4 C 12.230004,4 12,4.2532205 12,4.5625 L 12,6 c -3.8659932,0 -7,3.1340068 -7,7 0,3.865993 3.1340068,7 7,7 3.865993,0 7,-3.134007 7,-7 l -3,0 c 0,2.209139 -1.790861,4 -4,4 C 9.790861,17 8,15.209139 8,13 8,10.790861 9.790861,9 12,9 l 0,1.4375 C 12,10.746779 12.230004,11 12.53125,11 12.60657,11 12.684743,10.9971 12.75,10.96875 l 4.90625,-2.9375 C 17.852022,7.9462374 18,7.7319596 18,7.5 18,7.2680404 17.852022,7.0537626 17.65625,6.96875 L 12.75,4.03125 C 12.684743,4.002914 12.606566,4 12.53125,4 z"
     id="path3003"
     style="color:#000000;fill:url(#radialGradient3813-6);fill-opacity:1;fill-rule:nonzero;stroke:none;stroke-width:1;marker:none;visibility:visible;display:inline;overflow:visible;enable-background:accumulate" />
  <path
     d="M 12.53125,4.5 C 12.518522,4.5 12.5,4.5084789 12.5,4.5625 L 12.5,6 C 12.4926,6.2596991 12.259699,6.4925833 12,6.5 8.4122565,6.5 5.5,9.4122565 5.5,13 c 0,3.587743 2.9122565,6.5 6.5,6.5 3.416779,0 6.179296,-2.650652 6.4375,-6 l -2.03125,0 C 16.145122,15.741701 14.310018,17.5 12,17.5 9.5126113,17.5 7.5,15.487389 7.5,13 7.5,10.512611 9.5126113,8.5 12,8.5 12.259699,8.50742 12.492583,8.7403009 12.5,9 l 0,1.4375 c 0,0.05402 0.01852,0.0625 0.03125,0.0625 L 17.375,7.59375 c 0.245134,-0.095683 0,-0.1875 0,-0.1875 z"
     id="path4018"
     style="opacity:0.1;color:#000000;fill:none;stroke:#000000;stroke-width:1;stroke-linecap:round;stroke-linejoin:round;stroke-miterlimit:4;stroke-opacity:1;stroke-dasharray:none;stroke-dashoffset:0;marker:none;visibility:visible;display:inline;overflow:visible;enable-background:accumulate" />
</svg>

<svg xmlns="http://www.w3.org/2000/svg" xmlns:xlink="http://www.w3.org/1999/xlink" viewBox="0 0 24 24"><defs><radialGradient cx="16.202" cy="-19.005" r="20" fx="16.202" fy="-19.005" id="b" xlink:href="#a" gradientUnits="userSpaceOnUse" gradientTransform="matrix(0 1.7143 1.74186 0 44.77 -28.234)"/><linearGradient id="a"><stop offset="0" stop-color="#737373"/><stop offset=".262" stop-color="#636363"/><stop offset=".705" stop-color="#4b4b4b"/><stop offset="1" stop-color="#3f3f3f"/></linearGradient></defs><path d="M12.47 5.594v.5a1.472 1.472 0 0 1-1.25 1.468c-.146.02-.266.094-.408.125a1.472 1.472 0 0 1 1.657 1.47v.78L16.09 7.78l-3.625-2.184zm-2.064 2.218a5.44 5.44 0 0 0-2.72 1.844 5.554 5.554 0 0 1 2.72-1.844zm-2.72 1.844c-.725.93-1.217 2.06-1.217 3.344A5.51 5.51 0 0 0 12 18.53c2.547 0 4.568-1.732 5.22-4.06h-.064c-.658 2.282-2.67 4-5.156 4-3.004 0-5.47-2.466-5.47-5.47a5.34 5.34 0 0 1 1.157-3.344z" opacity=".03" color="#000" fill="none" stroke="#000" overflow="visible"/><path d="M12.53 4c-.3 0-.53.253-.53.563V6a7 7 0 1 0 7 7h-3a4 4 0 1 1-4-4v1.438c0 .31.23.562.53.562a.557.557 0 0 0 .22-.03l4.906-2.94A.592.592 0 0 0 18 7.5a.592.592 0 0 0-.344-.53L12.75 4.03a.558.558 0 0 0-.22-.03z" color="#000" fill="url(#b)" overflow="visible"/><path d="M12.53 4.5c-.01 0-.03.008-.03.063V6a.534.534 0 0 1-.5.5A6.503 6.503 0 0 0 5.5 13c0 3.588 2.912 6.5 6.5 6.5 3.417 0 6.18-2.65 6.438-6h-2.032c-.26 2.242-2.096 4-4.406 4A4.497 4.497 0 0 1 7.5 13c0-2.487 2.013-4.5 4.5-4.5.26.007.493.24.5.5v1.438c0 .054.02.062.03.062l4.845-2.906c.245-.096 0-.188 0-.188z" opacity=".1" color="#000" fill="none" stroke="#000" stroke-linecap="round" stroke-linejoin="round" overflow="visible"/></svg>
